X:14
T:No.96 The Low Level
C:hornpipe
L:1/8
M:4/4
K:Bb
D2FB dBFD|EBGB EBGB|
A2cf afcA|Bfdf Bfdf|
D2FB dBFD|EBGB EBGB|
ABcf afcA|[1B2b2B2B,2:|[2B2A2B2=e2||
(3fgf dB FBdf|DFBd fBdf|
(3gag ec EGcf|agf=e gfd_e|
(3fgf dB FBdf|DFBd fBdf|
agf=e gf_ec|Bbfd B2de:|
　
　
　
　
